libs/ui/packages/crypto-icons/src/svg/EGEM.svg

<svg width="24" height="24" viewBox="0 0 24 24" fill="none">
<path fill-rule="evenodd" clip-rule="evenodd" d="M12 4.06775L18.3457 14.221L12 19.9321L5.65424 14.221L12 4.06775ZM10.3058 13.5115H8.10237L11.55 7.9953V11.4896L10.3058 13.5115ZM10.4442 14.4115H8.40719L11.55 17.24V15.379L10.4442 14.4115ZM12.45 15.369V17.24L15.5928 14.4115H13.5442L12.45 15.369ZM13.6827 13.5115H15.8976L12.45 7.9953V11.5084L13.6827 13.5115Z" fill="#4A4AB6"/>
</svg>

<svg width="24" height="24" viewBox="0 0 24 24" fill="none"><path fill="#4a4ab6" fill-rule="evenodd" d="m12 4.068 6.346 10.153L12 19.932l-6.346-5.711zm-1.694 9.444H8.102l3.448-5.517v3.495zm.138.9H8.407l3.143 2.828v-1.861zm2.006.957v1.871l3.143-2.828h-2.049zm1.233-1.857h2.215L12.45 7.994v3.513z" clip-rule="evenodd"/></svg>
